docs/images/customers/customers-apple-watch.svg

<svg width="117" height="25" viewBox="0 0 117 25" fill="none" xmlns="http://www.w3.org/2000/svg">
<path fill-rule="evenodd" clip-rule="evenodd" d="M15.1296 5.86686C13.0704 5.71917 11.3235 6.98381 10.3499 6.98381C9.36082 6.98381 7.83619 5.8987 6.21958 5.92699C4.09749 5.95883 2.14024 7.12619 1.04641 8.97274C-1.15856 12.6897 0.483554 18.1958 2.63115 21.2097C3.68126 22.6848 4.93357 24.3438 6.57933 24.2837C8.16407 24.2227 8.76244 23.287 10.6769 23.287C12.5904 23.287 13.1305 24.2837 14.8054 24.2519C16.5094 24.2227 17.5905 22.7502 18.6324 21.2671C19.8392 19.5577 20.3356 17.903 20.3647 17.8128C20.3265 17.8004 17.0413 16.5738 17.0085 12.8993C16.9794 9.82792 19.5915 8.35015 19.7108 8.27851C18.2272 6.1587 15.9366 5.92523 15.1296 5.86686ZM97.4258 17.8641V18.1896C97.4258 21.3971 95.0095 24.2669 90.1606 24.2669C85.3253 24.2669 82.4509 21.3193 82.4509 16.1679V14.0163C82.4509 8.91791 85.339 5.87836 90.1734 5.87836C94.7126 5.87836 97.4258 8.65702 97.4258 12.1255V12.3077H93.7855C93.7855 10.5478 92.6306 8.98247 90.1998 8.98247C87.6077 8.98247 86.3044 10.6645 86.3044 14.0163V16.1679C86.3044 19.5586 87.595 21.1371 90.2262 21.1371C92.8456 21.1371 93.7855 19.7018 93.7855 17.8641H97.4258ZM31.2256 18.8811H31.2794L34.5436 6.16577H38.398L41.6749 18.8811H41.7286L44.7651 6.16577H48.8208L43.7305 23.968H39.8752L36.5045 11.7992H36.4371L33.0654 23.968H29.2384L24.1344 6.16577H28.191L31.2256 18.8811ZM105.269 13.3123H112.763V6.16577H116.578V23.968H112.763V16.3775H105.269V23.968H101.469V6.16577H105.269V13.3123ZM79.9928 6.16577V9.24335H74.5273V23.968H70.7394V9.24335H65.2866V6.16577H79.9928ZM59.4568 6.16577L65.3531 23.9671H61.2829L59.9759 19.4807H54.177L52.8491 23.9671H49.0485L54.9585 6.16577H59.4568ZM59.1808 16.7427L57.1206 9.67404H57.0806L54.9885 16.7427H59.1808ZM13.7753 3.97167C12.8955 4.95154 11.5102 5.69706 10.1505 5.59536C9.95737 4.2016 10.6678 2.74771 11.4765 1.83859C12.3791 0.814498 13.901 0.0477556 15.1597 0C15.3218 1.42029 14.7325 2.85118 13.8582 3.87527L13.8172 3.92391L13.7753 3.97167Z" fill="#D6DAE5"/>
</svg>

<svg width="117" height="25" fill="none" xmlns="http://www.w3.org/2000/svg"><path fill-rule="evenodd" clip-rule="evenodd" d="M15.13 5.867c-2.06-.148-3.807 1.117-4.78 1.117-.99 0-2.514-1.085-4.13-1.057-2.123.032-4.08 1.2-5.174 3.046-2.205 3.717-.562 9.223 1.585 12.237 1.05 1.475 2.303 3.134 3.948 3.074 1.585-.061 2.183-.997 4.098-.997 1.913 0 2.454.997 4.128.965 1.704-.03 2.785-1.502 3.827-2.985 1.207-1.71 1.704-3.364 1.733-3.454-.038-.013-3.324-1.24-3.356-4.914-.03-3.071 2.582-4.549 2.702-4.62-1.484-2.12-3.774-2.354-4.581-2.412Zm82.296 11.997v.326c0 3.207-2.416 6.077-7.265 6.077-4.836 0-7.71-2.948-7.71-8.1v-2.15c0-5.1 2.888-8.139 7.722-8.139 4.54 0 7.253 2.779 7.253 6.248v.182h-3.64c0-1.76-1.155-3.326-3.586-3.326-2.592 0-3.896 1.683-3.896 5.034v2.152c0 3.39 1.291 4.97 3.922 4.97 2.62 0 3.56-1.436 3.56-3.274h3.64Zm-66.2 1.017h.053l3.265-12.715h3.854l3.277 12.715h.054l3.036-12.715h4.056l-5.09 17.802h-3.856l-3.37-12.169h-.068l-3.372 12.169h-3.827L24.134 6.166h4.057l3.035 12.715Zm74.043-5.569h7.494V6.166h3.815v17.802h-3.815v-7.59h-7.494v7.59h-3.8V6.166h3.8v7.146ZM79.993 6.166v3.077h-5.466v14.725H70.74V9.243h-5.452V6.166h14.706Zm-20.536 0 5.896 17.801h-4.07l-1.307-4.486h-5.799l-1.328 4.486h-3.8l5.91-17.801h4.498Zm-.276 10.577-2.06-7.069h-.04l-2.093 7.069h4.193ZM13.775 3.972c-.88.98-2.265 1.725-3.625 1.623-.193-1.393.518-2.847 1.326-3.756C12.38.814 13.901.048 15.16 0c.162 1.42-.428 2.851-1.302 3.875l-.04.049-.043.048Z" fill="#D6DAE5"/></svg>
